components/Common/Svg/svgs/desktopTower2.svg

<svg width="90" height="90" viewBox="0 0 90 90" fill="none" xmlns="http://www.w3.org/2000/svg">
<circle opacity="0.7" cx="45" cy="45" r="45" fill="#FFE603"/>
<path fill-rule="evenodd" clip-rule="evenodd" d="M48.5 32.5C48.5 32.3619 48.6119 32.25 48.75 32.25H61.25C61.3881 32.25 61.5 32.3619 61.5 32.5V57.4997C61.5 57.6377 61.3881 57.7497 61.25 57.7497H48.75C48.6119 57.7497 48.5 57.6377 48.5 57.4997V32.5ZM48.75 30.25C47.5074 30.25 46.5 31.2573 46.5 32.5V57.4997C46.5 58.7423 47.5074 59.7496 48.75 59.7496H61.25C62.4926 59.7496 63.5 58.7423 63.5 57.4997V32.5C63.5 31.2573 62.4926 30.25 61.25 30.25H48.75ZM30 38.4999C29.6022 38.4999 29.2206 38.6579 28.9393 38.9392C28.658 39.2205 28.5 39.6021 28.5 39.9999V51.2497C28.5 51.6476 28.658 52.0291 28.9393 52.3104C29.2206 52.5917 29.6022 52.7497 30 52.7497H38.75H42.5C43.0523 52.7497 43.5 53.1974 43.5 53.7497C43.5 54.302 43.0523 54.7497 42.5 54.7497H39.75V57.7497H42.5C43.0523 57.7497 43.5 58.1974 43.5 58.7497C43.5 59.3019 43.0523 59.7496 42.5 59.7496H38.75H35C34.4477 59.7496 34 59.3019 34 58.7497C34 58.1974 34.4477 57.7497 35 57.7497H37.75V54.7497H30C29.0717 54.7497 28.1815 54.381 27.5251 53.7246C26.8687 53.0682 26.5 52.178 26.5 51.2497V39.9999C26.5 39.0716 26.8687 38.1814 27.5251 37.525C28.1815 36.8687 29.0717 36.4999 30 36.4999H42.5C43.0523 36.4999 43.5 36.9476 43.5 37.4999C43.5 38.0522 43.0523 38.4999 42.5 38.4999H30ZM56.875 53.1247C56.875 54.1602 56.0355 54.9997 55 54.9997C53.9645 54.9997 53.125 54.1602 53.125 53.1247C53.125 52.0892 53.9645 51.2497 55 51.2497C56.0355 51.2497 56.875 52.0892 56.875 53.1247Z" fill="#161616"/>
</svg>

<svg width="90" height="90" viewBox="0 0 90 90" fill="none" xmlns="http://www.w3.org/2000/svg"><circle opacity=".7" cx="45" cy="45" r="45" fill="#FFE603"/><path fill-rule="evenodd" clip-rule="evenodd" d="M48.5 32.5a.25.25 0 0 1 .25-.25h12.5a.25.25 0 0 1 .25.25v25a.25.25 0 0 1-.25.25h-12.5a.25.25 0 0 1-.25-.25v-25Zm.25-2.25a2.25 2.25 0 0 0-2.25 2.25v25a2.25 2.25 0 0 0 2.25 2.25h12.5a2.25 2.25 0 0 0 2.25-2.25v-25a2.25 2.25 0 0 0-2.25-2.25h-12.5ZM30 38.5a1.5 1.5 0 0 0-1.5 1.5v11.25a1.5 1.5 0 0 0 1.5 1.5h12.5a1 1 0 1 1 0 2h-2.75v3h2.75a1 1 0 1 1 0 2H35a1 1 0 1 1 0-2h2.75v-3H30a3.5 3.5 0 0 1-3.5-3.5V40a3.5 3.5 0 0 1 3.5-3.5h12.5a1 1 0 1 1 0 2H30Zm26.875 14.625a1.875 1.875 0 1 1-3.75 0 1.875 1.875 0 0 1 3.75 0Z" fill="#161616"/></svg>
